F[ERK1
CUT[IM AERGAEU SIND ZWEU LIEBI]
REG[Europa, Mitteleuropa, Schweiz]
KEY[E0049  16  G 2/4]
MEL[12  3_3_3_23  4_2_0_
    23  4_4_4_34  5_3_0_
    46  5_334_2_  32343_
    46  5_334_2_  3__. //] >>
FCT[erzaehlendes Volks - Lied, Sage, Mord
    Ballade ?]
